X: 2201
T: Australian Waters
R: jig
M: 6/8
K: Dmajor
|:dAG FED|=c3 ed^c|dAF GFE|FED gfe|
dAG FED|AB=c Ae^c|dAF GFE|D3 D3:|
|:dB/c/d efg|fed cBA|dB/c/d efg|fdc def|
[1 g3 faf|ecA ABc|dAF GFE|D3 D3:|
[2 gbb faa|efd cBA|dAF GFE|FED gfe||

